X: 12761
T: Father O'Grady's Visit To Bocca
R: reel
M: 4/4
K: Dmajor
B|ABde {a}fded|ABAG EGde|{a}fded cAAG|EFGE D2 de|
fded cAAG|EG ~G2 ABde|{a}f2 ed cAAG|EFGE D3 z|
{B}A2 de {a}f2 ed|ABAG EGde|{a}f2 ed cAAG|EFGE DAde|
{a}fded ~A3G|EG ~G2 ABde|{a}f2 ed cAAG|EFGE D3 z||
ABde fafe|{c}d2 ed cAAF|~G3A GE~E2|edcA GEFG|
A2 de {a}f2 ge|{c}d2 ed cAAf|fa{c'}af gece|fafe d3 B|
ABde fafe|dfed cAAF|~G3 A GE{A}ED|edcA GEFG|
ABde {a}f2 af|dfed cAAe|~f3 a gece|fafe d3 B||

